icons/directions.svg

<svg width="24" height="24" viewBox="0 0 24 24" fill="none" xmlns="http://www.w3.org/2000/svg">
<path fill-rule="evenodd" clip-rule="evenodd" d="M12 2C12.5523 2 13 2.44772 13 3V4H19C19.2652 4 19.5196 4.10536 19.7071 4.29289L21.7071 6.29289C22.0976 6.68342 22.0976 7.31658 21.7071 7.70711L19.7071 9.70711C19.5196 9.89464 19.2652 10 19 10H13V12H14C14.5523 12 15 12.4477 15 13V17C15 17.5523 14.5523 18 14 18H13V22C13 22.5523 12.5523 23 12 23C11.4477 23 11 22.5523 11 22V18H6C5.73478 18 5.48043 17.8946 5.29289 17.7071L3.29289 15.7071C2.90237 15.3166 2.90237 14.6834 3.29289 14.2929L5.29289 12.2929C5.48043 12.1054 5.73478 12 6 12H11V10H8C7.44772 10 7 9.55228 7 9V5C7 4.44772 7.44772 4 8 4H11V3C11 2.44772 11.4477 2 12 2ZM13 14H6.41421L5.41421 15L6.41421 16H13V14ZM9 6V8H18.5858L19.5858 7L18.5858 6H9Z" fill="black"/>
</svg>

<svg
  width="24"
  height="24"
  viewBox="0 0 24 24"
  xmlns="http://www.w3.org/2000/svg"
>
  <path
    fill-rule="evenodd"
    clip-rule="evenodd"
    d="M12 2a1 1 0 0 1 1 1v1h6a1 1 0 0 1 .707.293l2 2a1 1 0 0 1 0 1.414l-2 2A1 1 0 0 1 19 10h-6v2h1a1 1 0 0 1 1 1v4a1 1 0 0 1-1 1h-1v4a1 1 0 1 1-2 0v-4H6a1 1 0 0 1-.707-.293l-2-2a1 1 0 0 1 0-1.414l2-2A1 1 0 0 1 6 12h5v-2H8a1 1 0 0 1-1-1V5a1 1 0 0 1 1-1h3V3a1 1 0 0 1 1-1zm1 12H6.414l-1 1 1 1H13v-2zM9 6v2h9.586l1-1-1-1H9z"
  />
</svg>
